X:10701
T:Merry Blacksmith
M:4/4
L:1/8
R:Reel
K:D
|:A2|d2 dA BAFA|ABdA BAFA|ABde f2ed|Beed egfe|
|d2 dA BAFA|ABdA BAFA|ABde fdec|dBAF D2:|
|:fg|a2 ag fgfe|d2 dA BAFA|ABde f2ed|Beed egfe|
|abag fgfe|d2 dA BAFA|ABde fdec|dBAF D2:|
